X:189
T:Dr. Gregory Grant
R:Strathspey
B:The Athole Collection
M:C|
L:1/8
K:D
d|A<DD<F E>DB,B|A<DA<F B>A B<d|A<dF<d E>D B,<c|
d/c/B/A/ d<F A/A/A A:|
g|f>d f/g/a/f/ g<eef/g/|f<da<d b<da<d|g<af<g e>d e<g|
d/c/d/e/ d<F A/A/A A>g|f>d f/g/a/f/ g<eef/g/|f<da<d b<da<d|
(3gag (3fgf e>d e<f|d/c/B/A/ d<F D/D/D D||

